X:1
T:BAMBOULA
T:BAMBOULA
T:DANSE DE NEGRES.
T:L. M. GOTTSCHALK Op:2.
T:B. C. 1112.
T:B. C. 1112.
T:B. C. 1112.
T:B. C. 1112.
T:B. C. 1112.
T:B. C. 1112.
T:B. C. 1112.
T:B. C. 1112.
T:B. C. 1112.
T:B. C. 1112.
T:B. C. 1112.
T:B. C. 1112.
T:B. C. 1112.
T:B. C. 1112.
T:B. C. 1112.
C:L. M. GOTTSCHALK Op:2.
Z:B. C. 1112.
%%score { ( 1 3 ) | ( 2 4 ) } { ( 5 7 9 ) | ( 6 8 ) }
L:1/8
Q:1/4=112
M:2/4
K:Db
V:1 treble nm="Piano"
V:3 treble 
V:2 bass 
V:4 bass 
V:5 treble nm="Piano"
V:7 treble 
V:9 treble 
V:6 bass 
V:8 bass 
V:1
"^M. 112 " z4 | z4 | z4 | z4 | z4 | z4 | z4 | z4 | z4 | z4 | z4 | z4 | z4 | z4 | z4 | z4 | z4 | %17
 z4 | z4 | z4 | z4 | z4 | z4 | z4 | z4 | z4 | z4 | z4 | z4 | z4 | z4 | z4 | z4 | z4 | z4 | z4 | %36
 z4 | z4 | z4 | z4 | z4 | z4 | z4 | z4 | z4 | z4 | z4 | z4 | z4 | z4 | z4 | z4 | z4 | z4 | z4 | %55
 z4 | z4 | z4 | z4 | z4 | z4 | z4 | z4 | z4 |][K:F#] z4 | z4 | z4 | z4 | z4 | z4 | z4 | z4 | z4 | %73
 z4 | z4 | z4 | z4 | z4 | z4 | z4 | z4 | z4 | z4 |][K:Db] z4 | z4 | z4 | z4 | z4 | z4 | z4 | z4 | %91
 z4 | z4 | z4 | z4 | z4 | z4 | z4 | z4 | z4 | z4 | z4 | z4 | z4 | z4 | z4 | z4 | z4 | z4 | z4 | %110
 z4 | z4 | z4 | z4 | z4 |][K:F#] z4 | z4 | z4 | z4 | z4 | z4 | z4 | z4 | z4 | z4 | z4 | z4 | z4 | %128
 z4 | z4 | z4 | z4 | z4 | z4 | z4 |][K:Db] z4 | z4 | z4 | z4 | z4 | z4 | z4 | z4 | z4 | z4 | z4 | %146
[Q:1/4=95] z4 | z4 | z4 | z4 |[Q:1/4=90] z4 | z4 | z4 | z4 | z4 | z4 | z4 | z4 | z4 | z4 | z4 | %161
 z4 | z4 | z4 | z4 | z4 |[Q:1/4=95] z4 | z4 | z4 | z4 | z4 | z4 | z4 | z4 | z4 | z4 | z4 | z4 | %178
 z4 | z4 | z4 |[Q:1/4=92] z4 |[Q:1/4=90] z4 |[Q:1/4=87] x4[Q:1/4=85] |[Q:1/4=80] x4 | %185
[Q:1/4=95]!8va(! z/!ppp! f''/ [b'd'']/f'/ f'/f/d'/b'/ | z/ e''/ [g'b']/e'/ e'/e/b/g'/ | %187
 z/ f''/ [=a'c'']/f'/ f'/f/c'/a'/ | z/ f''/ [b'd'']/f'/ f'/f/b/b'/ | %189
 z/ f''/ [b'd'']/f'/ f'/f/b/b'/ | z/ e''/ [g'b']/e'/ e'/e/a/g'/ | %191
 z/ f''/ [b'd'']/f'/ f'/f/c'/=a'/ | z/ f''/ [b'd'']/f'/ f'/f/b/b'/ | %193
 z/ c''/ [e'a']/c'/ c'/c/a/e'/ | z/ d''/ [f'a']/d'/ d'/d/a/f'/ | z/ c''/ [e'a']/c'/ c'/c/a/e'/ | %196
 z/ d''/ [f'a']/d'/ d'/d/a/f'/ | z/ f''/ [=a'c'']/f'/ f'/f/c'/a'/ | %198
 z/ f''/ [b'd'']/f'/ f'/=g/d'/b'/ | z/ d''/ [f'a']/d'/ d'/d/a/e'/ | %200
 z/ d''/ [a'd'']/f'/ f'/f/d'/a'/!8va)! | z4 | z4 | z4 | z4 | z4 | z4 | z4 | z4 | z4 | z4 | z4 | %212
 z4 | z4 | z4 | z4 | z4 | z4 | z4 | z4 | z4 | z/!8va(! f''/ [b'd'']/f'/ f'/f/d'/b'/ | %222
 z/ f''/ [b'd'']/f'/!8va)!"^loco." [bd']/f/[d=g]/G/ | z4 | z4 | z4 | z4 | z4 | z4 | z4 | z4 | z4 | %232
[Q:1/4=75] z4 | z4 | z4 | z4 | z4 | z4 | z4 | z4 | z4 | z4 | z4 | z4 | z4 | z4 | z4 | z4 | z4 | %249
 z4 | z4 | z4 | z4 | z4 | z4 | z4 | z4 | z4 | z4 | z4 | z4 | z4 | z4 | z4 | z4 | z4 | z4 | z4 | %268
 z4 | z4 | z4 | z4 | z4 | z4 | z4 | z4 | z4 | z4 | z4 | z4 | z4 | z4 | z4 | z4 | z4 | z4 | z4 | %287
 z4 | z4 | z4 | z4 | z4 | z4 | z4 | z4 | z4 | z4 | z4 | z4 | z4 | z4 | z4 | z4 | z4 | z4 | z4 | %306
 z4 | z4 | z4 | z4 | z4 | z4 | z4 |[Q:1/4=80] z4 |[Q:1/4=85] z4 | %315
[K:Db]!pp!!8va(! (19:16:19(e''/4f''/4e''/4d''/4c''/4b'/4a'/4g'/4f'/4!8va)!e'/4d'/4c'/4b/4a/4g/4f/4e/4d/4c/4) |] %316
[K:F#]!p!"^il canto marcato.\n" (e4 |"^espres.\n" f2) (c>d | c2 G2 | A2 F2) |!p! (e4 | f2 c>d | %322
 c2 G2) | [CA]/[A,F]/ z z2 | (e4 | f2) (c>d | c2 G2 |!f! A2 F2) |!p! (e4 | f2 c>d | c2 G2) | %331
 [CA]/[A,F]/ z x2 |!p! [CA]/[A,F]/ z x z | [CA]/[A,F]/ z x z | [CA]/[A,F]/ z x2!D.S.! | %335
!mf! [CA]/!<(![A,F]/ z/ C/ [FA]/A,/ z!<)! |][K:Db]S!fff! !^!a>e gf | !^![Ad]/F/A,/[DFA]/ z [DFA] | %338
 z[I:staff +1] A,/[I:staff -1][CEGA]/ z [CEGA] | [FB]/D/A,/[DFA]/ z [DFA] | a>e gf | %341
 !^![Ad]/F/A,/[DFA]/ z [DFA] | z[I:staff +1] A,/[I:staff -1][CEGA]/ z [CEGA] | [FAd]/D/ z z2 | %344
 a>e gf | !^![Ad]/F/A,/[DFA]/ z [DFA] | z[I:staff +1] A,/[I:staff -1][CEGA]/ z [CEGA] | %347
 [FB]/D/A,/[DFA]/ z [DFA] | a>e gf | [Ad]/F/A,/[DFA]/ z [DFA] | %350
 z[I:staff +1] A,/[I:staff -1][CEGA]/ z [CEGA] | [FAd]/D/ z z2 | [FAd]/D/ z z2 | [FAd]/D/ z z2 | %354
 z4 | a>e gf | [FAd]/D/ z z2 |] %357
V:2
 z4 | z4 | z4 | z4 | z4 | z4 | z4 | z4 | z4 | z4 | z4 | z4 | z4 | z4 | z4 | z4 | z4 | z4 | z4 | %19
 z4 | z4 | z4 | z4 | z4 | z4 | z4 | z4 | z4 | z4 | z4 | z4 | z4 | z4 | z4 | z4 | z4 | z4 | z4 | %38
 z4 | z4 | z4 | z4 | z4 | z4 | z4 | z4 | z4 | z4 | z4 | z4 | z4 | z4 | z4 | z4 | z4 | z4 | z4 | %57
 z4 | z4 | z4 | z4 | z4 | z4 | z4 |][K:F#] z4 | z4 | z4 | z4 | z4 | z4 | z4 | z4 | z4 | z4 | z4 | %75
 z4 | z4 | z4 | z4 | z4 | z4 | z4 | z4 |][K:Db] z4 | z4 | z4 | z4 | z4 | z4 | z4 | z4 | z4 | z4 | %93
 z4 | z4 | z4 | z4 | z4 | z4 | z4 | z4 | z4 | z4 | z4 | z4 | z4 | z4 | z4 | z4 | z4 | z4 | z4 | %112
 z4 | z4 | z4 |][K:F#] z4 | z4 | z4 | z4 | z4 | z4 | z4 | z4 | z4 | z4 | z4 | z4 | z4 | z4 | z4 | %130
 z4 | z4 | z4 | z4 | z4 |][K:Db] z4 | z4 | z4 | z4 | z4 | z4 | z4 | z4 | z4 | z4 | z4 | z4 | z4 | %148
 z4 | z4 | z4 | z4 | z4 | z4 | z4 | z4 | z4 | z4 | z4 | z4 | z4 | z4 | z4 | z4 | z4 | z4 | z4 | %167
 z4 | z4 | z4 | z4 | z4 | z4 | z4 | z4 | z4 | z4 | z4 | z4 | z4 | z4 | z4 | z4 | z4 | z4 | z4 | %186
 z4 | z4 | z4 | z4 | z4 | z4 | z4 | z4 | z4 | z4 | z4 | z4 | z4 | z4 | z4 | z4 | z4 | z4 | z4 | %205
 z4 | z4 | z4 | z4 | z4 | z4 | z4 | z4 | z4 | z4 | z4 | z4 | z4 | z4 | z4 | z4 | z4 | z4 | z4 | %224
 z4 | z4 | z4 | z4 | z4 | z4 | z4 | z4 | z4 | z4 | z4 | z4 | z4 | z4 | z4 | z4 | z4 | z4 | z4 | %243
 z4 | z4 | z4 | z4 | z4 | z4 | z4 | z4 | z4 | z4 | z4 | z4 | z4 | z4 | z4 | z4 | z4 | z4 | z4 | %262
 z4 | z4 | z4 | z4 | z4 | z4 | z4 | z4 | z4 | z4 | z4 | z4 | z4 | z4 | z4 | z4 | z4 | z4 | z4 | %281
 z4 | z4 | z4 | z4 | z4 | z4 | z4 | z4 | z4 | z4 | z4 | z4 | z4 | z4 | z4 | z4 | z4 | z4 | z4 | %300
 z4 | z4 | z4 | z4 | z4 | z4 | z4 | z4 | z4 | z4 | z4 | z4 | z4 | z4 | z4 |[K:Db]"^Facilite." z4 |] %316
[K:F#] C,,[I:staff -1]G/A/[I:staff +1] .C.C | C,,[I:staff -1]F/G/[I:staff +1] .C.C | %318
 C,,[I:staff -1]C/D/[I:staff +1] .G,.B, | F,,A,/D,/ G,,/A,,/G,, | %320
"^subito.\n" C,,[I:staff -1]G/A/[I:staff +1] .C.C | C,,[I:staff -1]F/G/[I:staff +1] .C.C | %322
 C,,[I:staff -1]C/D/[I:staff +1] .G,.B, | z [F,C]/[C,A,]/ F,,2 | %324
 C,,[I:staff -1]G/A/[I:staff +1] .C.C | C,,[I:staff -1]F/G/[I:staff +1] .C.C | %326
 C,,[I:staff -1]C/D/[I:staff +1] .G,.B, | F,,A,/D,/ G,,/A,,/G,, | %328
"^subito.\n" C,,[I:staff -1]G/A/[I:staff +1] CC | C,,[I:staff -1]F/G/[I:staff +1] .C.C | %330
 C,,[I:staff -1]C/D/[I:staff +1] G,B, | z [F,C]/[C,A,]/ F,,2 | z [F,C] z [C,A,] | %333
 z [F,C] z [C,A,] | z [F,,,F,,] z2 | z !^![F,,,F,,] z !^![F,,,F,,] |][K:Db] [A,,,A,,]4 | %337
 [D,,D,][I:staff -1]A, [DFA][I:staff +1]A, | [A,,,A,,]A,[I:staff -1] [CEA][I:staff +1]A, | %339
 [D,,D,][I:staff -1]A, [DFA][I:staff +1]A, | [A,,,A,,]4 | %341
 [D,,D,][I:staff -1]A, [DFA][I:staff +1]A, | [A,,,A,,]A,[I:staff -1] [CEA][I:staff +1]A, | %343
 z [D,,,D,,] z2 | [A,,,A,,]4 | [D,,D,][I:staff -1]A, [DFA][I:staff +1]A, | %346
 [A,,,A,,]A,[I:staff -1] [CEA][I:staff +1]A, | [D,,D,][I:staff -1]A, [DFA][I:staff +1]A, | %348
 [A,,,A,,]4 | [D,,D,][I:staff -1]A, [DFA][I:staff +1]A, | %350
 [A,,,A,,]A,[I:staff -1] [CEA][I:staff +1]A, | z [D,,,D,,] z2 | z [D,,,D,,] z2 | z [D,,,D,,] z2 | %354
 z4 | [A,,,A,,]4 | z [D,,,D,,] z2 |] %357
V:3
 x4 | x4 | x4 | x4 | x4 | x4 | x4 | x4 | x4 | x4 | x4 | x4 | x4 | x4 | x4 | x4 | x4 | x4 | x4 | %19
 x4 | x4 | x4 | x4 | x4 | x4 | x4 | x4 | x4 | x4 | x4 | x4 | x4 | x4 | x4 | x4 | x4 | x4 | x4 | %38
 x4 | x4 | x4 | x4 | x4 | x4 | x4 | x4 | x4 | x4 | x4 | x4 | x4 | x4 | x4 | x4 | x4 | x4 | x4 | %57
 x4 | x4 | x4 | x4 | x4 | x4 | x4 |][K:F#] x4 | x4 | x4 | x4 | x4 | x4 | x4 | x4 | x4 | x4 | x4 | %75
 x4 | x4 | x4 | x4 | x4 | x4 | x4 | x4 |][K:Db] x4 | x4 | x4 | x4 | x4 | x4 | x4 | x4 | x4 | x4 | %93
 x4 | x4 | x4 | x4 | x4 | x4 | x4 | x4 | x4 | x4 | x4 | x4 | x4 | x4 | x4 | x4 | x4 | x4 | x4 | %112
 x4 | x4 | x4 |][K:F#] x4 | x4 | x4 | x4 | x4 | x4 | x4 | x4 | x4 | x4 | x4 | x4 | x4 | x4 | x4 | %130
 x4 | x4 | x4 | x4 | x4 |][K:Db] x4 | x4 | x4 | x4 | x4 | x4 | x4 | x4 | x4 | x4 | x4 | x4 | x4 | %148
 x4 | x4 | x4 | x4 | x4 | x4 | x4 | x4 | x4 | x4 | x4 | x4 | x4 | x4 | x4 | x4 | x4 | x4 | x4 | %167
 x4 | x4 | x4 | x4 | x4 | x4 | x4 | x4 | x4 | x4 | x4 | x4 | x4 | x4 | x4 | x4 | x4 | x4 | %185
!8va(! x4 | x4 | x4 | x4 | x4 | x4 | x4 | x4 | x4 | x4 | x4 | x4 | x4 | x4 | x4 | x4!8va)! | x4 | %202
 x4 | x4 | x4 | x4 | x4 | x4 | x4 | x4 | x4 | x4 | x4 | x4 | x4 | x4 | x4 | x4 | x4 | x4 | x4 | %221
 x/!8va(! x7/2 | x2!8va)! x2 | x4 | x4 | x4 | x4 | x4 | x4 | x4 | x4 | x4 | x4 | x4 | x4 | x4 | %236
 x4 | x4 | x4 | x4 | x4 | x4 | x4 | x4 | x4 | x4 | x4 | x4 | x4 | x4 | x4 | x4 | x4 | x4 | x4 | %255
 x4 | x4 | x4 | x4 | x4 | x4 | x4 | x4 | x4 | x4 | x4 | x4 | x4 | x4 | x4 | x4 | x4 | x4 | x4 | %274
 x4 | x4 | x4 | x4 | x4 | x4 | x4 | x4 | x4 | x4 | x4 | x4 | x4 | x4 | x4 | x4 | x4 | x4 | x4 | %293
 x4 | x4 | x4 | x4 | x4 | x4 | x4 | x4 | x4 | x4 | x4 | x4 | x4 | x4 | x4 | x4 | x4 | x4 | x4 | %312
 x4 | x4 | x4 |[K:Db]!8va(! x61/32!8va)! x17/8 |][K:F#] B/A/ x B/A/ z | A/G/ x A/F/ z | %318
 E/D/ x E/C/ z | [C^F]/A,/ x [^B,D]/z/G,/ z/ | B/A/ x B/G/ z | A/G/ x A/F/ z | E/D/ x E/C/ z | x4 | %324
 B/A/ x B/A/ z | A/G/ x A/F/ z | E/D/ x E/C/ z | [C^F]/A,/ x [^B,D]/z/G,/ z/ | B/A/ x B/G/ z | %329
 A/G/ x A/F/ z | E/D/ x E/C/ z | x4 | x4 | x4 | x4 | x4 |][K:Db]x/A/A/e/ [ceg]A | x4 | x4 | x4 | %340
x/A/A/e/ [ceg]A | x4 | x4 | x4 |x/A/A/e/ [ceg]A | x4 | x4 | x4 |x/A/A/e/ [ceg]A | x4 | x4 | x4 | %352
 x4 | x4 | x4 |x/A/A/e/ [ceg]A | x4 |] %357
V:4
 x4 | x4 | x4 | x4 | x4 | x4 | x4 | x4 | x4 | x4 | x4 | x4 | x4 | x4 | x4 | x4 | x4 | x4 | x4 | %19
 x4 | x4 | x4 | x4 | x4 | x4 | x4 | x4 | x4 | x4 | x4 | x4 | x4 | x4 | x4 | x4 | x4 | x4 | x4 | %38
 x4 | x4 | x4 | x4 | x4 | x4 | x4 | x4 | x4 | x4 | x4 | x4 | x4 | x4 | x4 | x4 | x4 | x4 | x4 | %57
 x4 | x4 | x4 | x4 | x4 | x4 | x4 |][K:F#] x4 | x4 | x4 | x4 | x4 | x4 | x4 | x4 | x4 | x4 | x4 | %75
 x4 | x4 | x4 | x4 | x4 | x4 | x4 | x4 |][K:Db] x4 | x4 | x4 | x4 | x4 | x4 | x4 | x4 | x4 | x4 | %93
 x4 | x4 | x4 | x4 | x4 | x4 | x4 | x4 | x4 | x4 | x4 | x4 | x4 | x4 | x4 | x4 | x4 | x4 | x4 | %112
 x4 | x4 | x4 |][K:F#] x4 | x4 | x4 | x4 | x4 | x4 | x4 | x4 | x4 | x4 | x4 | x4 | x4 | x4 | x4 | %130
 x4 | x4 | x4 | x4 | x4 |][K:Db] x4 | x4 | x4 | x4 | x4 | x4 | x4 | x4 | x4 | x4 | x4 | x4 | x4 | %148
 x4 | x4 | x4 | x4 | x4 | x4 | x4 | x4 | x4 | x4 | x4 | x4 | x4 | x4 | x4 | x4 | x4 | x4 | x4 | %167
 x4 | x4 | x4 | x4 | x4 | x4 | x4 | x4 | x4 | x4 | x4 | x4 | x4 | x4 | x4 | x4 | x4 | x4 | x4 | %186
 x4 | x4 | x4 | x4 | x4 | x4 | x4 | x4 | x4 | x4 | x4 | x4 | x4 | x4 | x4 | x4 | x4 | x4 | x4 | %205
 x4 | x4 | x4 | x4 | x4 | x4 | x4 | x4 | x4 | x4 | x4 | x4 | x4 | x4 | x4 | x4 | x4 | x4 | x4 | %224
 x4 | x4 | x4 | x4 | x4 | x4 | x4 | x4 | x4 | x4 | x4 | x4 | x4 | x4 | x4 | x4 | x4 | x4 | x4 | %243
 x4 | x4 | x4 | x4 | x4 | x4 | x4 | x4 | x4 | x4 | x4 | x4 | x4 | x4 | x4 | x4 | x4 | x4 | x4 | %262
 x4 | x4 | x4 | x4 | x4 | x4 | x4 | x4 | x4 | x4 | x4 | x4 | x4 | x4 | x4 | x4 | x4 | x4 | x4 | %281
 x4 | x4 | x4 | x4 | x4 | x4 | x4 | x4 | x4 | x4 | x4 | x4 | x4 | x4 | x4 | x4 | x4 | x4 | x4 | %300
 x4 | x4 | x4 | x4 | x4 | x4 | x4 | x4 | x4 | x4 | x4 | x4 | x4 | x4 | x4 |[K:Db] x4 |][K:F#] x4 | %317
 x4 | x4 | x4 | x4 | x4 | x4 | x4 | x4 | x4 | x4 | x4 | x4 | x4 | x4 | x4 | x2 F,, x | x2 F,, x | %334
 x4 | x4 |][K:Db]x[I:staff -1]A x2 | x4 | x4 | x4 |[I:staff +1]x[I:staff -1]A x2 | x4 | x4 | x4 | %344
[I:staff +1]x[I:staff -1]A x2 | x4 | x4 | x4 |[I:staff +1]x[I:staff -1]A x2 | x4 | x4 | x4 | x4 | %353
 x4 | x4 |[I:staff +1]x[I:staff -1]A x2 | x4 |] %357
V:5
 z4 | z4 | z4 | z4 |!mf! !^!A>E GF | !^![EA]/F,/ z"^de la Louisiane." z2 | z4 | z4 | !^!A>E GF | %9
 !^![EA]/F,/ z z2 | z4 | z4 |!<(! A>E GF | A>E GF | A>E GF | A>E GF!<)! |!ff! !^!a>e gf | %17
 !^![Ad]/F/A,/[DFA]/ z [DFA] | z[I:staff +1] A,/[I:staff -1][CEGA]/ z [CEGA] | %19
 !^![FB]/D/A,/[DFA]/ z [DFA] | !^!a>e gf | !^![Ad]/F/A,/[DFA]/ z [DFA] | %22
 z[I:staff +1] A,/[I:staff -1][CEGA]/ z [CEGA] | !^![FAd]/D/ z z2 | !^!a>e gf | %25
 !^![Ad]/D/A,/[DFA]/ z [DFA] | z[I:staff +1] A,/[I:staff -1][CEGA]/ z [CEGA] | %27
 !^![FB]/D/A,/[DFA]/ z [DFA] | !^!a>e gf | !^![Ad]/F/A,/[DFA]/ z [DFA] | %30
 z[I:staff +1] A,/[I:staff -1][CEGA]/ z [CEGA] | [FAd]/D/ z z2 | !^!b>f ag | %33
 !^![Be]/G/B,/[EGB]/ z [EGB] | z[I:staff +1] B,/[I:staff -1][=DFAB]/ z [DFAB] | %35
 _c>B z !^![=Aeg=a] |!ff! !^!_a>e gf | !^![Ad]/F/A,/[DFA]/ z [DFA] | %38
 z[I:staff +1] A,/[I:staff -1][CEGA]/ z [CEGA] | !^![FAd]/D/ z z2 |!ff! !^!a>e gf | %41
 !^![Ad]/F/A,/[DFA]/ z [DFA] | z[I:staff +1] A,/[I:staff -1][CEGA]/ z [CEGA] | %43
 !^![FB]/D/A,/[DFA]/ z [DFA] | !^!a>e gf | !^![Ad]/F/A,/[DFA]/ z [DFA] | %46
 z[I:staff +1] A,/[I:staff -1][CEGA]/ z [CEGA] | !^![FAd]/D/ z z2 |!p! !^!d4- | d4 | !^!d4- | d4 | %52
!mf! f4- | f4 | [FA]/cC/ [=E=G]/cC/ | [FA]/cF/ .[Af]/f/[faf']/ z/ |!p! !^!d4- | d4 | d4- | d4 | %60
 f4- | f4 | [FA]/cC/ [=E=G]/cC/ | [FA]/cF/ (.[Acf].f) |][K:F#]!pp!"^sostenuto  il canto." (!^!e4 | %65
"^con espres." f2) (c>d | c2 G2 |!f! A2 F2) |!p! (!^!e4 | f2) (c>d | c2 G2 | !^![CFA]/)A,/ z z2 | %72
!p!"^espres  il canto." (!^!e4 | f2) (c>d | c2 G2 | [FA]2 F2) |!p! (!^!e4 | f2) c>d | c2 G2 | %79
 !^![CFA]/A,/ z!p! .F,/ z/ z | [CFA]/A,/ z .F,/ z/ z | [CFA]/A,/ z z2 | %82
!ff! !^![CFA]/!<(!A,/ z/ C/!^![FA]/A,/ z!<)! |][K:Db]!ff! !^!a>e gf | !^![Ad]/F/A,/[DFA]/ z [DFA] | %85
 z[I:staff +1] A,/[I:staff -1][CEGA]/ z [CEGA] | !^![Ad]/F/A,/[DFA]/ z [DFA] | !^!a>e gf | %88
 !^![Ad]/F/A,/[DFA]/ z [DFA] | z[I:staff +1] A,/[I:staff -1][CEGA]/ z [CEGA] | !^![FAd]/D/ z z2 | %91
!mf! !^!b>e ag | !^![Be]/G/B,/[EGB]/ z [EGB] | z B,/[=DFAB]/ z [DFAB] | %94
 !^![G_c]/E/B,/[EGB]/ z !^![=Aeg=a] |!f! _a>e gf | !^![Ad]/F/A,/[DFA]/ z [DFA] | %97
 z[I:staff +1] A,/[I:staff -1][CEGA]/ x [CEGA] | !^![FAd]/D/ z z2 |!p! d4- | d4 | d4- | d4 | %103
!mf! f4- |"^martelé." f4 | [FA]/cC/ [=E=G]/cC/ |"^staccato." [FA]/cF/!f! .[Af]/f/[faf']/ z/ | %107
!p! d4- | d4 | d4- | d4 |!mf! f4- | f4 | [FA]/cC/ [=E=G]/cC/ |!f! [FA]/cF/ [Acf]f |] %115
[K:F#]!p!"^Il canto ben marcato." (e4 |"^arec expression mais\nbien rythmé\n" (f2) c>d | c2 G2 | %118
!f! A2 F2) |!p! (e4 | f2) c>d | c2 G2 | [CA]/[A,F]/ z x2 | (e4 | (f2) c>d | c2 G2 | A2 F2) | (e4 | %128
 f2) c>d | c2 G2 | [CA]/[A,F]/ z x2 | [CA]/[A,F]/ z x z | [CA]/[A,F]/ z x z | [CA]/[A,F]/ z x2 | %134
!<(! [CA]/!f![A,F]/ z/ C/ [FA]/A,/ z!<)! |][K:Db]!ff! !^!a>e gf | !^![Ad]/F/A,/[DFA]/ z [DFA] | %137
 z[I:staff +1] A,/[I:staff -1][CEGA]/ z [CEGA] | !^![FB]/D/A,/[DFA]/ z [DFA] | a>e gf | %140
 !^![Ad]/F/A,/[DFA]/ z [DFA] | z[I:staff +1] A,/[I:staff -1][CEGA]/ z [CEGA] | %142
!ff! !^![FAd]/D/ z !^!A, z | !^![FAd]/D/ z !^!A, z | [FAd]/D/ z z2 | !fermata!z4 | %146
!p!"^un poco meno mosso." z ([B,B]/!<(![FA]/!<)! !wedge!d)!wedge![B,DFB] | %147
 z ([B,B]/!<(![FA]/!<)! !wedge!d)!wedge![B,DFB] | z ([B,B]/!<(![FA]/!<)! !wedge!d)!wedge![B,DFB] | %149
 z ([B,B]/!<(![FA]/!<)! !wedge!d)!wedge![B,DFB] | %150
!p!"^legato il canto e tempo rubato." B/d/!^!f- f!^!a- | a/g/!^!g- g/c/!^!c | =A/c/!^!e- e!^!g- | %153
 g/f/!^!f- f/d/B | B/d/!^!f- f!^!a- | a/g/!^!g- g/c/!^!c | g/f/b/f/ e/d/e/d/ | c/d/c/B/ B z | %158
 B/d/f- fa- | a/g/g- g/c/c | =A/c/e- eg- | g/f/f- f/d/B | B/d/f- fa- | a/g/!^!g- g/c/!^!c | %164
 g/f/b/f/ e/d/e/d/ | c/d/c/B/ B z |!mf! _A/c/!^!e- e!^!g- | g/f/!^!f- f/e/d | A/c/!^!e- e!^!g- | %169
 g/f/!^!f- f/e/d | F/=A/!^!c- c!^!e- | e/d/!^!d- d/c/B |!p! A/d/!^!f- f/b/a/c/ | e/d/d z2 | %174
!mf! _A/c/!^!e- e!^!g- | g/f/!^!f- f/e/d | A/c/!^!e- e!^!g- | g/f/!^!f- f/e/d | F/=A/!^!c- c!^!e- | %179
 e/d/!^!d- d/c/B |!p! A/d/!^!f- f/b/a/c/ | e/d/d z2 | e/d/d z2 | %183
 e/d/d"^1\na\n""^es""^1\n  2.\n" z2 |"^1°. Tempo.""^Facilité\nPour les Pianos\n""^6 8." z4 | %185
!p! z/!8va(! .[b'f'']/ .[b'f'']/.[f'd'']/!8va)!"^loco." .[bf']/.[fd']/.[Bf]/.[Fd]/ | %186
 z/!8va(! .[b'g'']/ .[b'g'']/.[g'e'']/!8va)!"^loco." .[bg']/.[ge']/.[Bg]/.[Ge]/ | %187
 z/!8va(! .[=a'f'']/ .[a'f'']/.[f'c'']/!8va)!"^loco." .[=af']/.[fc']/.[ca]/.[Ae]/ | %188
 z/!8va(! .[b'f'']/ .[b'f'']/.[f'd'']/!8va)!"^loco." .[bf']/.[fd']/.[Bf]/.[Fd]/ | %189
 z/!8va(! .[b'f'']/ .[b'f'']/.[f'd'']/!8va)!"^loco." .[bf']/.[fd']/.[Bf]/.[Fd]/ | %190
 z/!8va(! .[b'g'']/ .[b'g'']/.[g'e'']/!8va)!"^loco." .[bg']/.[ge']/.[Bg]/.[Ge]/ | %191
!f! z/!8va(! .[b'f'']/ .[b'f'']/.[f'd'']/!8va)!"^loco." .[bf']/.[fd']/.[=Af]/.[Fc]/ | %192
!f! z/!8va(! .[b'f'']/ .[b'f'']/.[f'd'']/!8va)!"^loco." .[bf']/.[fd']/.[Bf]/.[Fd]/ | %193
!ff! z/!8va(! .[c''a'']/ .[c''a'']/.[a'e'']/!8va)!"^loco." .[c'a']/.[ae']/.[ca]/.[Ae]/ | %194
 z/!8va(! .[a'f'']/ .[a'f'']/.[f'd'']/!8va)!"^loco." .[af']/.[fd']/.[Af]/.[Fd]/ | %195
 z/!8va(! .[c''a'']/ .[c''a'']/.[a'e'']/!8va)!"^loco." .[c'a']/.[ae']/.[ca]/.[Ae]/ | %196
 z/!8va(! .[a'f'']/ .[a'f'']/.[f'd'']/!8va)!"^loco." .[af']/.[fd']/.[Af]/.[Fd]/ | %197
 z/!8va(! .[=a'f'']/ .[a'f'']/.[f'c'']/!8va)!"^loco." .[=af']/.[fc']/.[Af]/.[Fc]/ | %198
 z/!8va(! .[b'f'']/ .[b'f'']/.[f'd'']/!8va)!"^loco." .[bf']/.[fd']/.[d=g]/.[=G=e]/ | %199
!ff! z/!8va(! .[d''a'']/ .[d''a'']/.[a'f'']/!8va)!"^loco." .[d'a']/.[af']/.[ca]/.[Ae]/ | %200
 z/!8va(! .[a'f'']/ .[a'f'']/.[f'd'']/!8va)!"^loco." .[af']/.[fd']/.[Af]/.[Fd]/ | %201
 z/!8va(! .[c''a'']/ .[c''a'']/.[a'e'']/!8va)!"^loco." .[c'a']/.[ae']/.[ca]/.[Ae]/ | %202
 z/!8va(! .[a'f'']/ .[a'f'']/.[f'd'']/!8va)!"^loco." .[af']/.[fd']/.[Af]/.[Fd]/ | %203
 z/!8va(! .[c''a'']/ .[c''a'']/.[a'e'']/!8va)!"^loco." .[c'a']/.[ae']/.[ca]/.[Ae]/ | %204
 z/!8va(! .[a'f'']/ .[a'f'']/.[f'd'']/!8va)!"^loco." .[af']/.[fd']/.[Af]/.[Fd]/ | %205
 z/!8va(! .[=a'f'']/ .[a'f'']/.[f'd'']/!8va)!"^loco." .[=af']/.[fd']/.[Af]/.[Fc]/ | %206
 z/!8va(! .[b'f'']/ .[b'f'']/.[f'd'']/!8va)!"^loco." .[bf']/.[fd']/.[d=g]/.[=G=e]/ | %207
!ff! z/!8va(! [d''a'']/ [d''a'']/[a'f'']/!8va)!"^loco." [d'a']/[af']/[ca]/[Ae]/ | %208
 z/!8va(! [a'f'']/ [a'f'']/[f'd'']/!8va)!"^loco." [af']/[fd']/[Af]/[Fd]/ | %209
 z/!8va(! [a'f'']/ [a'f'']/[f'd'']/!8va)!"^loco." [af']/[fd']/[Af]/[Fd]/ | %210
 z/!8va(! [a'f'']/ [a'f'']/[f'd'']/!8va)!"^loco." [af']/[fd']/[Af]/[Fd]/ | %211
 z/!8va(! [a'f'']/ [a'f'']/[f'd'']/!8va)!"^loco." [af']/[fd']/[Af]/[Fd]/ | B/d/!^!f- f!^!a- | %213
 a/g/g- g/c/c | =A/c/e- eg- | g/f/f- f/d/B | B/d/f- fa- | a/g/g- g/c/c | %218
"^legato." g/f/b/f/ e/d/e/d/ | c/d/c/B/ B z | c/d/c/B/ x z | %221
"_cresc." z/!8va(! [b'f'']/ [b'f'']/[f'd'']/!8va)!"^loco." [bf']/[fd']/[Bf]/[Fd]/ | %222
 z/!8va(! [b'f'']/ [b'f'']/[f'd'']/!8va)!"^loco." [bf']/[fd']/!ff![d=g]/[G_f]/ | a>e gf | %224
 !^![Ad]/F/A,/[DFA]/ z [DFA] | z[I:staff +1] A,/[I:staff -1][CEGA]/ z [CEGA] | %226
 !^![FB]/D/A,/[DFA]/ z [DFA] | !^!a>e gf | !^![Ad]/F/A,/[DFA]/ z [DFA] | %229
 z[I:staff +1] A,/[I:staff -1][CEGA]/ z [CEGA] | !^![FAd]/D/ z !fermata!z2 |!pp! (.d z .d') z | %232
!8va(! !trill(!Td''4- | d''2 x [b'g'']/4d''/4b'/4g'/4!8va)! | %234
"^loco." [bg']/ z/!p! [bg']/4d'/4b/4g/4 [Bg]/ z/ z | !fermata!z4 |!p!!8va(! !trill(!Td''4- | %237
 d''2 x [b'g'']/4d''/4b'/4g'/4!8va)! |"^loco." [bg']/ z/!p! [bg']/4d'/4b/4g/4 [Bg]/ z/ z | %239
 !fermata!z4 |!p! z!8va(! [b'g'']/4d''/4b'/4g'/4 !^![bg']/ z/ [c''f'']/4d''/4c''/4f'/4 | %241
 !^![c'f']/ z/ z [b'g'']/4d''/4b'/4g'/4 !^![bg']/ z/ | %242
 z [b'g'']/4d''/4b'/4g'/4 !^![bg']/ z/ [c''f'']/4d''/4c''/4f'/4 | %243
 !^![c'f']/ z/ z [b'g'']/4d''/4b'/4g'/4 !^![bg']/ z/ | %244
 z2!pp! [b'g'']/4d''/4b'/4g'/4"^scintillante." [bg']/ z/ | z2 [b'g'']/4d''/4b'/4g'/4 [bg']/ z/ | %246
 z2 [b'g'']/4d''/4b'/4g'/4 [bg']/!8va)! z/ |"^loco." z2 [bg']/4d'/4b/4g/4 !^![Bg]/ z/ | %248
 z2 [bg']/4d'/4b/4g/4 !^![Bg]/ z/ | z2 [bg']/4d'/4b/4g/4 !^![Bg]/ z/ | %250
 z z/ (3([bg']/4d'/4b/4) !^!f/"^il canto marcato"e/d/c/ |!p! (B/d/ !^!f2 a) | %252
 (!^!a>g) g/e'/!p!c'/ z/ | (=A/c/ !^!e2 g) | (!^!g>f) f/d'/b/ z/ | (B/d/ f2 a) | %256
 (a>g) g/e'/c'/ z/ | (gf/e/ d/_b/f/c/) | (B/d/ f2 d/c/) | (B/d/ f2 a) | (a>g) g/e'/c'/ z/ | %261
 (=A/c/ e2 g) | (g>f) f/d'/b/ z/ | (B/d/ f2 a) | (a>g) g/e'/c'/ z/ | (gf/e/ d/_b/f/c/) | %266
"_cresc." B/d/ =e2 x |!f! A/c/ _e2x/c/ | [df]/[Ae]/[Fd]/[Ae]/ z/ [fd']/[af']/[fd']/ | A/c/ e2x/c/ | %270
 [df]/[Ae]/[Fd]/[Ae]/ z/ [fd']/[af']/[fd']/ | F/=A/ c2 =G/A/ | %272
 [Bd]/[_Gc]/[DB]/[Gc]/ z/ [db]/[=ed']/[db]/ |!ff! A/d/ f2x/c/ | %274
 [df]/[Ae]/[Fd]/[Ae]/ z/ [fd']/[af']/[fd']/ | A/c/ e2x/c/ | %276
 [df]/[Ae]/[Fd]/[Ae]/ z/ [fd']/[af']/[fd']/ | A/c/ e2x/c/ | %278
 [df]/[Ae]/[Fd]/[Ae]/ z/ [fd']/[af']/[fd']/ | F/=A/ c2 =G/A/ | %280
 [Bd]/[_Gc]/[DB]/[Gc]/ z/ [db]/[=ed']/[db]/ | _A/d/ f2x/c/ | %282
 [df]/[Ae]/"_cresc."[Fd]/[Ae]/ z/ [fd']/[af']/[fd']/ | [df]/[Ae]/[Fd]/[Ae]/ z/ [fd']/[af']/[fd']/ | %284
 [df]/[Ae]/[Fd]/[Ae]/!f! z/4!>(! f/4d'/4a/4!8va(! f''/4f'/4d''/4a'/4!>)! | %285
!pp! (f''/4e''/4d''/4c''/4 b'/4a'/4g'/4f'/4!8va)! (10:8:10e'/4d'/4c'/4b/4a/4g/4f/4e/4d/4c/4) | %286
!p! (B/d/ !^!f2 a) | (a>g) g/e'/c'/ z/ | A/=c/ e2 g | (g>f) f/d'/b/ z/ | (B/d/ f2 a) | %291
 (a>g) g/e'/c'/ z/ | (gf/e/ d/_b/f/c/) |"_cresc." B/d/ =e2 e/G/ |!f! _A/c/ e2x/c/ | %295
 [df]/[Ae]/[Fd]/[Ae]/ z/ [fd']/[af']/[fd']/ | A/c/ e2x/c/ | %297
 [df]/[Ae]/[Fd]/[Ae]/ z/ [fd']/[af']/[fd']/ | F/=A/ c2 =G/A/ | %299
 [Bd]/[Gc]/[DB]/[Gc]/ z/ [db]/[=ed']/[db]/ | A/d/ f2x/c/ | %301
 [df]/[Ae]/"_cresc."[Fd]/[Ae]/ z/ [fd']/[af']/[fd']/ | [df]/[Ae]/[Fd]/[Ae]/ z/ [fd']/[af']/[fd']/ | %303
 [df]/[Ae]/[Fd]/[Ae]/!f! z/4!>(! f/4d'/4a/4f'/4f'/4!8va(!d''/4a'/4!>)! | %304
!pp! (f''/4e''/4d''/4c''/4 b'/4a'/4g'/4f'/4!8va)! (10:8:10e'/4d'/4c'/4b/4a/4g/4f/4e/4d/4c/4) | %305
!p! (B/d/ f2 a) | (a>g) g/e'/c'/ z/ | =A/c/ e2 g | (g>f) f/d'/b/ z/ | (B/d/ f2 a) | %310
 (a>g) g/e'/c'/ z/ | (gf/e/ d/_b/f/c/) |!p! (B/d/ f2 d/c/) |!p! (B/d/ f2 d/c/) | B/d/ f2 x!8va(! | %315
[K:Db]!pp! (15:16:15e''/4f''/4e''/4d''/4c''/4b'/4a'/4g'/4f'/4e'/4d'/4c'/4b/4a/4g/4!8va)! |] %316
[K:F#]!p! z (3g/g/g/ [c'g']/g/!8va(! !^!c''/!8va)! z/ | %317
 z (3a/a/a/ [c'a']/a/!8va(! !^!c''/!8va)! z/ | z (3g/g/g/ [c'g']/g/!8va(! !^!c''/!8va)! z/ | %319
 z [af']/f/ z [gd'g'] | z (3g/g/g/ [c'g']/g/!8va(! !^!c''/!8va)! z/ | %321
 z (3a/a/a/ [c'a']/a/!8va(! !^!c''/!8va)! z/ | z (3g/g/g/ [c'g']/g/!8va(! !^!c''/!8va)! z/ | %323
!ff! z [^b=a']/[a^d']/ .[c^a].[Ff] |!ff! z (3g/g/g/ [c'g']/g/!8va(! !^!c''/!8va)! z/ | %325
 z (3a/a/a/ [c'a']/a/!8va(! !^!c''/!8va)! z/ | z (3g/g/g/ [c'g']/g/!8va(! !^!c''/!8va)! z/ | %327
 z [af']/f/ z [gd'g'] | z (3g/g/g/ [c'g']/g/!8va(! !^!c''/!8va)! z/ | %329
 z (3a/a/a/ [c'a']/a/!8va(! !^!c''/!8va)! z/ | z (3g/g/g/ [c'g']/g/!8va(! !^!c''/!8va)! z/ | %331
!ff! z [^b=a']/[a^d']/ .[c^a].!^![Ff] | z [^b=a']/[a^d']/ [c^a]!^![Ff] | %333
 z [^b=a']/[a^d']/ [c^a]!^![Ff] | z [^b=a']/[a^d']/ [c^a]!^![Ff] | x4 |] %336
[K:Db]"^con bravura.\n" z (3a/a/a/ a'/a/ z |!fff! z (3a/a/a/ a'/a/ z | %338
!fff!!fff! z (3a/a/a/ a'/a/ z |!fff! z (3a/a/a/ a'/a/ z | z (3a/a/a/ a'/a/ z | %341
!fff! z (3a/a/a/ a'/a/ z | z (3a/a/a/ a'/a/ z | [DFAd]!8va(![d'f'a'd'']!8va)! z2 | %344
 z (3a/a/a/ a'/a/ z |!fff! z (3a/a/a/ a'/a/ z |!fff! z (3a/a/a/ a'/a/ z |!fff! z (3a/a/a/ a'/a/ z | %348
 z (3a/a/a/ a'/a/ z |!fff! z (3a/a/a/ a'/a/ z | z (3a/a/a/ a'/a/ z | %351
 [DFAd]!8va(![d'f'a'd'']!8va)! z2 | [DFAd]!8va(![d'f'a'd'']!8va)! z2 | %353
 [DFAd]!8va(![d'f'a'd'']!8va)! z2 | z4 | z [aa'] x2 | [FAd]/D/ z"^FIN." z2 |] %357
V:6
!fff! [D,,,D,,] z z2 |!fff! [D,,,D,,] z z2 |!fff! [D,,,D,,] z z2 |!fff! [D,,,D,,] z z2 | %4
"^stacc."!ped! [D,,,D,,]4 | z!p! [D,,,D,,] z2!ped-up! |!p! [D,,,D,,] z z2 |!p! [D,,,D,,] z z2 | %8
!fff!!ped! [D,,,D,,]4 | z!p!"_seo." [D,,,D,,] z2!ped-up! |!p! [D,,,D,,] z z2 |!p! [D,,,D,,] z z2 | %12
 !^![D,,,D,,][I:staff -1]A,[I:staff +1] x2 | !^![D,,D,][I:staff -1]A,[I:staff +1] x2 | %14
"^cresc  -" !^![D,,D,][I:staff -1]A,"^en  -"[I:staff +1] x2 | %15
"^-     -     -    do." !^![D,,D,][I:staff -1]A,[I:staff +1] x2 | %16
"^très rythmé.""_Très marquè le 1. temp:\nde chaque mesure.\n"!ped! !^![A,,,A,,]4 | %17
 !^![D,,D,]!ped-up![I:staff -1]A, [DFA][I:staff +1]A, | %18
!ped! !^![A,,,A,,]A,[I:staff -1] [CEGA][I:staff +1]A,!ped-up! | %19
"_8a"!ped! [D,,D,][I:staff -1]A, [DFA][I:staff +1]A,!ped-up! |!ped! !^![A,,,A,,]4!ped-up! | %21
!ped! !^![D,,D,][I:staff -1]A, [DFA][I:staff +1]A,!ped-up! | %22
!ped! !^![A,,,A,,]A,[I:staff -1] [CEGA][I:staff +1]A, | z!ff!"_seo." [D,,,D,,] z2!ped-up! | %24
"^sempre stacc:"!ped! !^![A,,,A,,]4 |!ped! !^![D,,D,]!ped-up![I:staff -1]A, [DFA][I:staff +1]A, | %26
!ped! !^![A,,,A,,]A,[I:staff -1] [CEGA][I:staff +1]A,!ped-up! | %27
"_8a"!ped! [D,,D,][I:staff -1]A, [DFA][I:staff +1]A,!ped-up! |!ped! !^![A,,,A,,]4!ped-up! | %29
!ped! !^![D,,D,]!ped-up![I:staff -1]A, [DFA][I:staff +1]A, | %30
!ped! !^![A,,,A,,]A,[I:staff -1] [CEGA][I:staff +1]A,!ped-up! | z!ff!"_seo." [D,,,D,,] z2 | %32
!ped! [B,,,B,,]4!ped-up! |!ped! !^![E,,E,]!ped-up![I:staff -1]B, [EGB][I:staff +1]B, | %34
!ped! !^![B,,,B,,]B,[I:staff -1] [DFB][I:staff +1]B,!ped-up! | %35
!ped! [E,,,E,,][I:staff -1]B, [EGB][I:staff +1] z!ped-up! |!ped! !^![A,,,A,,]4!ped-up! | %37
!ped! !^![D,,D,]!ped-up![I:staff -1]A, [DFA][I:staff +1]A, | %38
!ped! !^![A,,,A,,]A,[I:staff -1] [CEA][I:staff +1]A,!ped-up! | z!ff! [D,,,D,,] z2 | %40
!ped! [A,,,A,,]4!ped-up! |!ped! !^![D,,D,]!ped-up![I:staff -1]A, [DFA][I:staff +1]A, | %42
!ped! !^![A,,,A,,]A,[I:staff -1] [CEGA][I:staff +1]A,!ped-up! | %43
!8vb(!!ped! [D,,,D,,]!8vb)![I:staff -1]A, [DFA][I:staff +1]A,!ped-up! | %44
!ped! !^![A,,,A,,]4!ped-up! |!ped! !^![D,,D,]!ped-up![I:staff -1]A, [DFA][I:staff +1]A, | %46
!ped! !^![A,,,A,,]A,[I:staff -1] [CEA][I:staff +1]A,!ped-up! | z!ff! [D,,,D,,] z2 | %48
"^leg."!ped! [D,,D,][I:staff -1]D[I:staff +1] z .D!ped-up! | .G,,.D .B,.G, | %50
!ped! [D,,D,][I:staff -1]D[I:staff +1] z .D!ped-up! | .G,,.D .B,.G, | %52
!ped! [D,,D,][I:staff -1]F[I:staff +1] z .D!ped-up! |"^streppido cresc  -   -" .B,,.F .D.B, | %54
"^en" !^![C,,C,][I:staff -1]A,"^do"[I:staff +1] !^![C,,C,][I:staff -1]=G, | %55
"^stac:"!ped![I:staff +1] [F,,,F,,][I:staff -1]A,"^conforza."[I:staff +1] z[I:staff -1] [FAcf]/[I:staff +1] z/!ped-up! | %56
!ped! [D,,D,][I:staff -1]D[I:staff +1] z .D!ped-up! | .G,,.D .B,.G, | %58
!ped! [D,,D,][I:staff -1]D[I:staff +1] z .D!ped-up! | .G,,.D .B,.G, | %60
!ped! [D,,D,][I:staff -1]F[I:staff +1] z .D!ped-up! |"^cresc  -   -     -" .B,,.F .D.B, | %62
"^en" !^![C,,C,][I:staff -1]A,"^do."[I:staff +1] !^![C,,C,][I:staff -1]=G, | %63
!ped![I:staff +1] [F,,,F,,][I:staff -1]A,[I:staff +1] z2!ped-up! |] %64
[K:F#]"^très rythmé.\nstacc:l'accomp:\n" C,,2 .[CEG]/z/.[B,CE]/ z/ | F,,2 .[A,CF]/z/.[F,A,C]/ z/ | %66
 C,,2 .[G,B,C]/z/.[E,G,B,]/ z/ |"_pesante il basso." F,,/F,/!^!C, G,,/A,,/!^!G,, | %68
"^subito." C,,2 .[CEG]/z/.[B,CE]/ z/ | F,,2 .[A,CF]/z/.[F,A,C]/ z/ | %70
 C,,2 .[G,B,C]/z/.[E,G,B,]/ z/ | z"_seo." [F,,,F,,] z2 | C,,2 [CEG]/z/[B,CE]/ z/ | %73
 F,,2 [A,CF]/z/[F,A,C]/ z/ | C,,2 [G,B,C]/z/[E,G,B,]/ z/ | %75
"_pesante il basso." F,,/F,/!^!C, .[^B,DF]/z/.G,/ z/ | C,,2 [CEG]/z/[B,CE]/ z/ | %77
 F,,2 [A,CF]/z/[F,A,C]/ z/ | C,,2 [G,B,C]/z/[E,G,B,]/ z/ | z"^sempre" [F,,,F,,] z .C,,/ z/ | %80
 z [F,,,F,,] z .C,,/ z/ | z [F,,,F,,] z2 | z [F,,,F,,] z !^![F,,,F,,] |] %83
[K:Db]!ped! [A,,,A,,]4!ped-up! |!ped! !^![D,,D,][I:staff -1]A, [DFA][I:staff +1]A,!ped-up! | %85
!ped! !^![A,,,A,,]A,[I:staff -1] [CEGA][I:staff +1]A,!ped-up! | %86
!8vb(!!ped! !^![D,,,D,,]!8vb)![I:staff -1]A, [DFA][I:staff +1]A,!ped-up! | %87
!ped! !^![A,,,A,,]4!ped-up! |!ped! [D,,D,][I:staff -1]A, [DFA][I:staff +1]A,!ped-up! | %89
!ped! [A,,,A,,]A,[I:staff -1] [CEGA][I:staff +1]A,!ped-up! | z!ff! [D,,,D,,] z2 | %91
!ped! !^![B,,,B,,]4!ped-up! |!ped! !^![E,,E,][I:staff -1]B, [EGB][I:staff +1]B,!ped-up! | %93
!ped! !^![B,,,B,,][I:staff -1]B, [=DFAB][I:staff +1]B,!ped-up! | %94
!ped! [E,,E,][I:staff -1]B, [EGB][I:staff +1] z!ped-up! |!ped! [A,,,A,,]4!ped-up! | %96
!ped! !^![D,,D,][I:staff -1]A, [DFA][I:staff +1]A,!ped-up! | %97
!ped! !^![A,,,A,,]A,[I:staff -1] [CEA][I:staff +1]A,!ped-up! | z!f! [D,,,D,,] z2 | %99
 [D,,D,][I:staff -1]D[I:staff +1] z .D | .G,,.D .B,.G, | [D,,D,][I:staff -1]D[I:staff +1] z .D | %102
 .G,,.D .B,.G, | [D,,D,][I:staff -1]F[I:staff +1] z .D |"^streppido cresc  -   -" .B,,.F .D.B, | %105
"^en           -     -" !^![C,,C,][I:staff -1]A,[I:staff +1] !^![C,,C,][I:staff -1]=G, | %106
"^do"[I:staff +1] [F,,,F,,][I:staff -1]A,"^con"[I:staff +1] z[I:staff -1] [FAcf]/[I:staff +1] z/ | %107
 [D,,D,][I:staff -1]D[I:staff +1] z .D | .G,,.D .B,.G, | [D,,D,][I:staff -1]D[I:staff +1] z .D | %110
 .G,,.D .B,.G, | [D,,D,][I:staff -1]F[I:staff +1] z .D | .B,,.F .D"^cresc. -     -".B, | %113
"^-   do." !^![C,,C,][I:staff -1]A,[I:staff +1] !^![C,,C,][I:staff -1]=G, | %114
[I:staff +1] [F,,,F,,][I:staff -1]A,[I:staff +1] z2 |] %115
[K:F#]"^subito." C,,[I:staff -1]G/A/[I:staff +1] .C.C | C,,[I:staff -1]F/G/[I:staff +1] .C.C | %117
 C,,[I:staff -1]C/D/[I:staff +1] .G,.B, |"_marcato il basso." F,,"^stacc:"A,/D,/ G,,/A,,/!^!G,, | %119
 C,,[I:staff -1]G/A/[I:staff +1] .C.C | C,,[I:staff -1]F/G/[I:staff +1] .C.C | %121
 C,,[I:staff -1]C/D/[I:staff +1] .G,.B, | z [F,C]/[C,A,]/ z x | %123
 C,,[I:staff -1]G/A/[I:staff +1] .C.C | C,,[I:staff -1]F/G/[I:staff +1] .C.C | %125
 C,,[I:staff -1]C/D/[I:staff +1] .G,.B, | F,,A,/D,/ G,,/A,,/!^!G,, | %127
 C,,[I:staff -1]G/A/[I:staff +1] .C.C | C,,[I:staff -1]F/G/[I:staff +1] .C.C | %129
 C,,[I:staff -1]C/D/[I:staff +1] .G,.B, | z [F,C]/[C,A,]/ F,,2 | z [F,C] z [C,A,] | %132
 z [F,C] z [C,A,] | z [F,,,F,,] z2 | z !^![F,,,F,,] z !^![F,,,F,,] |] %135
[K:Db]!ped! [A,,,A,,]4!ped-up! |!ped! !^![D,,D,][I:staff -1]A, [DFA][I:staff +1]A,!ped-up! | %137
!ped! !^![A,,,A,,]A,[I:staff -1] [CEGA][I:staff +1]A,!ped-up! | %138
!8vb(!!ped! [D,,,D,,]!8vb)![I:staff -1]A, [DFA][I:staff +1]A,!ped-up! |!ped! [A,,,A,,]4!ped-up! | %140
!ped! [D,,D,][I:staff -1]A, [DFA][I:staff +1]A,!ped-up! | %141
!ped! !^![A,,,A,,]A,[I:staff -1] [CEGA][I:staff +1]A,!ped-up! | z !^![D,,,D,,]!ff! z !^![A,,,A,,] | %143
 z !^![D,,,D,,] z !^![A,,,A,,] | z !^![D,,,D,,] z2 |"_silenzio." !fermata!z4 | [B,,,B,,] z z2 | %147
 [B,,,B,,] z z2 | [B,,,B,,] z z2 | [B,,,B,,] z z2 | %150
"_la basse touhours rythmée""^semplice."!ped! [B,,,B,,][K:treble]([B,B]/[DF]/) d[B,DFB]!ped-up! | %151
[K:bass]!ped! [B,,,B,,][K:treble](([B,B]/[DF]/) d)[B,DFB]!ped-up! | %152
[K:bass]!ped! [F,,F,][K:treble]([=A,=A]/[CF]/) c[A,CFA]!ped-up! | %153
[K:bass]!ped! [B,,,B,,][K:treble]([B,B]/[DF]/) d[B,DF]!ped-up! | %154
[K:bass]!ped! [B,,,B,,][K:treble]([B,B]/[DF]/) d[B,DFB]!ped-up! | %155
[K:bass]!ped! [E,,E,][K:treble]([B,B]/[DF]/) e[B,EGB]!ped-up! | %156
[K:bass]"^grazioso."!ped! [E,,E,][K:treble]([B,B]/[DF]/) e[B,EGB]!ped-up! | %157
[K:bass] [B,,,B,,][K:treble][F,F]/[DF]/ x2 |[K:bass] [B,,,B,,][K:treble]([B,B]/[DF]/) d[B,DFB] | %159
[K:bass] [B,,,B,,][K:treble](([B,B]/[DF]/) d)[B,DFB] | %160
[K:bass] [F,,F,][K:treble]([=A,=A]/[CF]/) c[A,CFA] | %161
[K:bass] [B,,,B,,][K:treble]([B,B]/[DF]/) d[B,DF] | %162
[K:bass] [B,,,B,,][K:treble]([B,B]/[DF]/) d[B,DFB] | %163
[K:bass] [E,,E,][K:treble]([B,B]/[DF]/) e[B,EGB] | %164
[K:bass] [E,,E,][K:treble]([B,B]/[DF]/) e[B,EGB] |[K:bass] B,,,[K:treble][F,D]/[B,F]/ x2 | %166
[K:bass]!ped! [A,,,A,,][K:treble]([A,A]/[CE]/ c)[A,CEA]!ped-up! | %167
[K:bass]"^dim"!ped! [D,,D,][K:treble]([A,A]/[CE]/ d)[A,DFA]!ped-up! | %168
[K:bass]!ped! A,,[K:treble]([A,A]/[CE]/ c)[A,CEA]!ped-up! | %169
[K:bass]!ped! D,[K:treble]([A,A]/[CE]/ d)[A,DFA]!ped-up! | %170
[K:bass]!ped! F,,[K:treble][F,F]/[=A,C]/ A[F,A,CF]!ped-up! | %171
[K:bass]"^dim"!ped! [G,,G,][K:treble]([G,G]/[B,D]/ B)[K:bass][=G,,=G,]!ped-up! | %172
 [A,,A,][K:treble]"^con grazia."([A,A]/[DF]/ d)[A,CGA] | %173
[K:bass] D,,[K:treble]([A,A]/[DF]/ d)[A,DFA] | %174
[K:bass]!ped! [A,,,A,,][K:treble]([A,E]/[CA]/ [Ec])[A,CEA]!ped-up! | %175
[K:bass]!ped! D,,[K:treble]([A,F]/[DA]/ [Fd])[A,DFA]!ped-up! | %176
[K:bass]!ped! A,,[K:treble]([A,E]/[CA]/ [Ec])[A,CEA]!ped-up! | %177
[K:bass]"^dim"!ped! D,,[K:treble]([A,E]/[DA]/ [Fd])[A,DFA]!ped-up! | %178
[K:bass]!ped! F,,[K:treble][F,C]/[=A,F]/ [C=A][F,A,CF]!ped-up! | %179
[K:bass]!ped! [G,,G,][K:treble]([G,D]/[B,G]/ [DB])[K:bass][=G,,=G,]!ped-up! | %180
 [A,,A,][K:treble]"^con grazia   espres."([A,F]/[DA]/ [Fd])[A,CGA] | %181
[K:bass] D,,[K:treble]([A,F]/[DA]/ [Fd])[A,DFA] | z ([A,F]/[DA]/ [Fd])[A,DFA] | %183
"^un poco rall." z ([A,F]/[DA]/ [Fd])[A,DFA] | z ([A,F]/[DA]/ [Fd])[A,DFA] | %185
[K:bass]!ped! [B,,,B,,]"^staccato.""_il basso ben\n marcato.\n" !^![F,B,DF]2 !^![A,B,DA]-!ped-up! | %186
 [A,B,DA]/[G,B,G]/[G,B,G]- [G,B,G]/[E,E]/[C,C] | %187
!ped! [=A,,,=A,,] !^![E,A,CE]2 !^![G,=A,CG]-!ped-up! | %188
 [G,=A,CG]/[G,F]/[F,B,DF]- [F,B,DF]/[D,D]/[B,,B,] | %189
!ped! [B,,,B,,] !^![F,B,DF]2 !^![A,B,DA]-!ped-up! | [A,B,DA]/[G,B,G]/[G,B,G]- [G,B,G]/[E,E]/[C,C] | %191
 [B,DG]/[F,F]/[F,B,DF]- [F,B,DF][=A,,F,C] |!ped! [B,,F,D]/[B,,F,C]/[B,,F,B,] z2!ped-up! | %193
!ff!!ped! !^![A,,,A,,] !^![E,A,CE]2 !^![G,-A,CG-]!ped-up! | %194
 [G,G]/[F,F]/[F,A,DF]- [F,A,DF]/[E,E]/[D,F,A,D] | %195
!ped! !^![A,,,A,,] !^![E,A,CE]2 !^![G,-A,CG-]!ped-up! | %196
 [G,G]/[F,F]/[F,A,DF]- [F,A,DF]/[E,E]/[D,F,A,D] | %197
!ped! !^![F,,,F,,] !^![C,F,=A,C]2 !^![E,E]-!ped-up! | %198
 [E,E]/[D,D]/[D,D]- [D,D]/[C,C]/[B,,D,=E,=G,B,] |!ped! !^![A,,,A,,] [A,DFA]2 [A,CEA]!ped-up! | %200
!ped! !^![D,,,D,,][K:treble] [DFAd]2 z!ped-up! | %201
[K:bass]!ped! !^![A,,,A,,] !^![E,A,CE]2 !^![G,-A,CG-]!ped-up! | %202
 [G,G]/[F,F]/[F,A,DF]- [F,A,DF]/[E,E]/[D,F,A,D] | %203
!ped! !^![A,,,A,,] !^![E,A,CE]2 !^![G,-A,CG-]!ped-up! | %204
 [G,G]/[F,F]/[F,A,DF]- [F,A,DF]/[E,E]/[D,D] |!ped! !^![F,,,F,,] !^![C,F,=A,C]2 !^![E,E]-!ped-up! | %206
 [E,E]/[D,D]/[D,D]- [D,D]/[C,C]/[B,,B,] |!ped! !^![A,,,A,,][K:treble] [A,DFA]2 [A,CEA]!ped-up! | %208
[K:bass]"^cresc.    -     -    en     -    -" !^![D,,,D,,][K:treble] [DFAd]2 z | %209
[K:bass] !^![D,,,D,,][K:treble] [DFAd]2 z | %210
[K:bass]"^do" !^![D,,,D,,][K:treble] [DFAd]2"^tutta  la forza possible." z | %211
[K:bass] !^![D,,,D,,][K:treble] [DFAd]2 z | %212
[K:bass]"^subito."!ped! !^![B,,,B,,][K:treble]([B,B]/[DF]/) d[B,DFB]!ped-up! | %213
[K:bass]!ped! !^![E,,E,][K:treble](([B,B]/[EG]/) e)[B,EGB]!ped-up! | %214
[K:bass]!ped! !^![F,,F,][K:treble]([=A,=A]/[CE]/ c)[A,CFA]!ped-up! | %215
[K:bass]!ped! !^![B,,,B,,][K:treble]"^dim"([B,B]/[DF]/ d)[B,DF]!ped-up! | %216
[K:bass]!ped! !^![B,,,B,,][K:treble]([B,B]/[DF]/) d[B,DFB]!ped-up! | %217
[K:bass]!ped! !^![E,,E,][K:treble]"^dim."([B,B]/[EG]/ e)[B,EGB]!ped-up! | %218
[K:bass]"^semplice." !^![F,,F,][K:treble]([F,F]/[B,D]/) e[F,CE=A] | %219
[K:bass] !^![B,,,B,,][K:treble][F,F]/[B,D]/ x2 |[K:bass] !^![B,,,B,,][K:treble]([F,F]/[B,D]/) x2 | %221
[K:bass]!ped! [B,,,B,,][B,,,B,,]/[B,,,B,,]/ [B,,,B,,][B,,,B,,]!ped-up! | %222
 !^![B,,,B,,]!^![B,,,B,,]/!^![B,,,B,,]/ !^![B,,,B,,]!^![B,,,B,,] | %223
"^fortissimo."!ped! !^![A,,,A,,]4!ped-up! | %224
!ped! !^![D,,D,]!ped-up![I:staff -1]A, [DFA][I:staff +1]A, | %225
 !^![A,,,A,,]A,[I:staff -1] [CEA][I:staff +1]A, | %226
!8vb(!!ped! [D,,,D,,]!8vb)![I:staff -1]A, [DFA][I:staff +1]A,!ped-up! | %227
!ped! !^![A,,,A,,]4!ped-up! |!ped! !^![D,,D,]!ped-up![I:staff -1]A, [DFA][I:staff +1]A, | %229
 !^![A,,,A,,]A,[I:staff -1] [CEA][I:staff +1]A, | z!ff!"_seo." !^![D,,,D,,] !fermata!z2 | %231
"^ad lib:" z4 | D,, [B,DG]2 [A,CF]- | [A,CF][CDA] [B,DG]"^rolante\n  legg.\n" z | z4 | %235
 !fermata!z4 | D,, [B,DG]2 [A,CF]- | [A,CF][CDA] [B,DG] z |"^leggierissimo." z4 | !fermata!z4 | %240
!ped! D,/[B,DG]/!^![B,DG]- [B,DG]!ped-up!!ped!!^![A,CF]-!ped-up! | [A,CF][CDA] !^![B,DG] z | %242
!ped! D,/[B,DG]/!^![B,DG]-!ped-up! [B,DG]!ped-up!!ped!!^![A,CF]- | [A,CF][CDA] !^![B,DG] z | %244
!ped! G,,"^sempe      e legg."[B,DG]!ped-up! z2 | G,,[B,DG] z2 | G,,[B,DG] z2 | z4 | z4 | z4 | z4 | %251
!ped! [B,,,B,,][B,F][I:staff -1] [Fd][I:staff +1][DFB]!ped-up! | %252
!ped! E,,[B,G]/"^stac\n""^dim\n"[EB]/[I:staff -1] [Ge][I:staff +1][EB]!ped-up! | %253
!ped! F,,[=A,F][I:staff -1] [Fc][I:staff +1][CF=A]!ped-up! | %254
!ped! B,,[B,F]/"^dim\n"[DB]/[I:staff -1] [Fd][I:staff +1][DFB]!ped-up! | %255
!ped! [B,,,B,,][B,F][I:staff -1] [Fd][I:staff +1][DFB]!ped-up! | %256
 E,,[B,G]/[EB]/[I:staff -1] [Ge][I:staff +1][EB] | E,,[E,CG] [F,DF][F,C=A] | %258
 [B,,F,D]"^dim\n" z z2 |!ped! [B,,,B,,][B,F] [Fd][DFB]!ped-up! | %260
!ped! E,,[B,G]/[EB]/[I:staff -1] [Ge][I:staff +1][EB]!ped-up! |!ped! F,,[=A,F] [Fc][CF=A]!ped-up! | %262
!ped! B,,[B,F]/[DB]/[I:staff -1] [Fd][I:staff +1][DFB]!ped-up! | %263
!ped! [B,,,B,,][B,F][I:staff -1] [Fd][I:staff +1][DFB]!ped-up! | %264
!ped! E,,[K:treble][B,G]/[EB]/ [Ge][EB]!ped-up! |[K:bass] E,,[E,CG] [F,DF][F,C=A] | %266
!ped! [B,,F,D] z z2!ped-up! |!ped! !^![A,,,A,,] [E,E][I:staff -1] [Aa][I:staff +1]A,!ped-up! | %268
!ped! [D,,D,]2[K:treble] [DFd] z!ped-up! | %269
[K:bass]!ped! [A,,,A,,] [E,E][I:staff -1] [Aa][I:staff +1]A,!ped-up! | [D,,D,]2[K:treble] [DFd] z | %271
[K:bass]!ped! [F,,F,][C,C][I:staff -1] [Ff][I:staff +1]F,!ped-up! | %272
 [G,,G,]2[K:treble] [DGBd][=G,=G] | %273
[K:bass]!ped! [A,,A,][A,A]!ped-up![I:staff -1] [Aa][I:staff +1]A, | [D,,D,]2[K:treble] [DFd] z | %275
[K:bass]!ped! [A,,,A,,] [E,E][I:staff -1] [Aa][I:staff +1]A,!ped-up! | [D,,D,]2[K:treble] [DFd] z | %277
[K:bass]!ped! [A,,,A,,] [E,E][I:staff -1] [Aa][I:staff +1]A,!ped-up! | [D,,D,]2[K:treble] [DFd] z | %279
[K:bass]!ped! [F,,F,][C,C][I:staff -1] [Ff][I:staff +1]F,!ped-up! | %280
 [G,,G,]2[K:treble] [DGBd][=G,=G] | %281
[K:bass]!ped! [A,,A,][A,A]!ped-up![I:staff -1] [Aa][I:staff +1]A, | %282
!ped! [D,,D,]2[K:treble] [DFAd] z!ped-up! |[K:bass] [D,,D,]2[K:treble] [DFAd] z | %284
[K:bass] [D,,D,]2[K:treble] [DFAd]"^brillante.\n" z |[K:bass]"^con velocita.\n" z4 | %286
!ped! !^![B,,,B,,][K:treble][B,F] [Fd][DFB]!ped-up! |[K:bass] E,,[K:treble][B,G]/[EB]/ [Ge][EB] | %288
[K:bass]!ped! [F,,F,][K:treble][=A,F] [Fc][CFA]!ped-up! | %289
[K:bass] [B,,,B,,][K:treble][B,F]/[DA]/ [Fd][DB] | %290
[K:bass]!ped! [B,,,B,,][K:treble][B,F] [Fd]!ped-up![DFB] | %291
[K:bass] E,,[K:treble][B,G]/[EB]/ [Ge][EB] |[K:bass] E,,[E,CG] [F,DF][F,C=A] | %293
!ped! [B,,F,D] z z2!ped-up! |!ped! [A,,,A,,] [E,E][I:staff -1] [Aa][I:staff +1]A,!ped-up! | %295
 [D,,D,]2[K:treble] [DFd] z |[K:bass]!ped! [A,,,A,,] [E,E][I:staff -1] [Aa][I:staff +1]A,!ped-up! | %297
 [D,,D,] z[K:treble] [DFd] z |[K:bass]!ped! [F,,F,][C,C][I:staff -1] [Ff][I:staff +1]F,!ped-up! | %299
 [_G,,_G,]2[K:treble] [DGBd][=G,=G] | %300
[K:bass]!ped! [A,,A,][A,A]!ped-up![I:staff -1] [Aa][I:staff +1]A, | %301
!ped! [D,,D,]2[K:treble] [DFd] z!ped-up! |[K:bass]!ped! [D,,D,]2[K:treble] [DFd] z!ped-up! | %303
[K:bass]!ped! [D,,D,]2[K:treble] [DFd] z!ped-up! |[K:bass]"^con velocita.\n" z4 | %305
!ped! !^![B,,,B,,][K:treble][B,F] [Fd][DFB]!ped-up! | %306
[K:bass] [E,,E,][K:treble][B,G]/[EB]/ [Ge][EB] | %307
[K:bass]!ped! [F,,F,][K:treble][=A,F] [Fc][CFA]!ped-up! | %308
[K:bass] [B,,,B,,][K:treble][B,F]/[DA]/ [Fd][DB] | %309
[K:bass]!ped! [B,,,B,,][K:treble][B,F] [Fd]!ped-up![DFB] | %310
[K:bass] E,,[K:treble][B,G]/[EB]/ [Ge][EB] |[K:bass] E,,[E,CG] [F,DF][F,C=A] | %312
!ped! [A,,F,D] z z2!ped-up! |!ped! [A,,F,D] z z2!ped-up! |!ped! [A,,F,D] z z2!ped-up! | %315
[K:Db]"^brillante veloce.\n" z4 |] %316
[K:F#]"^il canto sostenuto ben  marcato.\n"!ped! [C,,C,]"_il basso stacc.\n" C/C/ D/C/C/C,/!ped-up! | %317
!ped! F,,C/C/ D/C/C/C,/!ped-up! |!ped! C,,C/C/ D/C/C/C,/!ped-up! | %319
!ped! F,,"^rolante.\n"D/C/ ^B,/G,/D,/G,,/!ped-up! |!ped! C,,C/C/ D/C/C/C,/!ped-up! | %321
!ped! F,,C/C/ D/C/C/C,/!ped-up! |!ped! C,,C/C/ D/C/C/C,/!ped-up! | %323
 F,,[I:staff -1]d/^B/ ^E/F/[I:staff +1]F, |!ped! [C,,C,] C/C/ D/C/C/C,/!ped-up! | %325
!ped! F,,C/C/ D/C/C/C,/!ped-up! |!ped! C,,C/C/ D/C/C/C,/!ped-up! | %327
!ped! F,,D/C/ ^B,/G,/D,/G,,/!ped-up! |!ped! C,,C/C/ D/C/C/C,/!ped-up! | %329
!ped! F,,C/C/ D/C/C/C,/!ped-up! |!ped! C,,C/C/ D/C/C/C,/!ped-up! | %331
 F,,[I:staff -1]d/^B/ ^E/F/[I:staff +1]F, | %332
!ped!"_cresc." F,,[I:staff -1]d/^B/ E/F/[I:staff +1]F,!ped-up! | %333
!ped! F,[I:staff -1]d/^B/ E/F/[I:staff +1]F,!ped-up! | %334
"^con fuoco.\n" F,[I:staff -1]d/^B/ E/F/[I:staff +1]F, | x4 |] %336
[K:Db]!fff!"^tutta la forza.\n"!ped! [A,,,A,,] x2 [A,A]!ped-up! |!fff!!ped! [D,,D,] x3!ped-up! | %338
 [A,,,A,,] x3 | [D,,,D,,] x3 |!fff! [A,,,A,,] x2 [A,A] | [D,,D,] x3 | [A,,,A,,] x3 | %343
!ped! [D,,D,][K:treble][DFAd] z2!ped-up! |[K:bass]!fff!!ped! [A,,,A,,] x2!ped-up! [A,A] | %345
!ped! [D,,D,] x3!ped-up! |!ped! [A,,,A,,] x3!ped-up! |!ped! [D,,,D,,] x3!ped-up! | %348
!ped! [A,,,A,,] x2 [A,A]!ped-up! |!ped! [D,,D,] x3!ped-up! |!fff!!ped! [A,,,A,,] x3!ped-up! | %351
!ped! [D,,D,][K:treble][DFAd] z2!ped-up! |[K:bass]!ped! [D,,D,][K:treble][DFAd]!ped-up! z2 | %353
[K:bass]!ped! [D,,D,][K:treble][DFAd]!ped-up! z2 |[K:bass] z4 | %355
!ped! [A,,,A,,]"^tutta la forza.\n" x2!ped-up! [A,A] |!ped! z [D,,,D,,] z2!ped-up! |] %357
V:7
 x4 | x4 | x4 | x4 |x/A,/A,/E/ [EG][I:staff +1]A, | x4 | x4 | x4 | %8
[I:staff -1]x/A,/A,/E/ [EG][I:staff +1]A, | x4 | x4 | x4 | %12
[I:staff -1]x/A,/A,/E/ [EG][I:staff +1]A, |[I:staff -1]x/A,/A,/E/ [EG][I:staff +1]A, | %14
[I:staff -1] E/A,/A,/E/ [EG][I:staff +1]A, |[I:staff -1] E/A,/A,/E/ [EG][I:staff +1]A, | %16
[I:staff -1]x/A/A/e/ [ceg]A | x4 | x4 | x4 |x/A/A/e/ [ceg]A | x4 | x4 | x4 |x/A/A/e/ [ceg]A | x4 | %26
 x4 | x4 |x/A/A/e/ [ceg]A | x4 | x4 | x4 |x/B/B/f/ [=dfa]B | x4 | x4 | G/E/B,/[EG]/ x2 | %36
x/A/A/e/ [ceg]A | x4 | x4 | x4 |x/A/A/e/ [ceg]A | x4 | x4 | x4 |x/A/A/e/ [ceg]A | x4 | x4 | x4 | %48
x/.D/.D/.D/ A>B | (3(A/B/A/).G !^!D2 |x/.D/.D/.D/ A>B | (3(A/B/A/).G !^!D2 |x/.F/.F/.F/ c>d | %53
 (3(c/d/"^martelé."c/)(3(d/c/B/) (3(A/B/A/)(3(B/A/=G/) | x [A,DF]/C/ x [=G,=B,=E]/C/ | %55
 x [A,C=E]/F/ x2 |x/.D/.D/.D/ A>B | (3(A/B/A/).G !^!D2 |x/.D/.D/.D/ A>B | (3(A/B/A/).G !^!D2 | %60
x/.F/.F/.F/ c>d | (3(c/"^martelé."d/c/)(3(d/c/B/) (3(A/B/A/)(3(B/A/=G/) | %62
 x [A,DF]/C/ x [=G,=B,=E]/C/ | x [A,C=E]/F/ x2 |][K:F#] B>d .c/z/.B/ z/ | .A/z/.G/ z/ .A/z/.F/ z/ | %66
 .E/z/.D/ z/ .E/z/.C/ z/ | [CF]/z/.A,/ z/ [^B,D]/z/.G,/ z/ | B>d .c/z/.B/ z/ | %69
 .A/z/.G/ z/ .A/z/.F/ z/ | .E/z/.D/ z/ .E/z/.C/ z/ | x4 | B>d .c/z/.B/ z/ | .A/z/.G/ z/ A/z/F/ z/ | %74
 .E/z/.D/ z/ E/z/.C/ z/ | C/z/.A,/ z/ x2 | B>d .c/z/.B/ z/ | .A/z/.G/ z/ A/z/F/ z/ | %78
 .E/z/.D/ z/ E/z/.C/ z/ | x4 | x4 | x4 | x4 |][K:Db]x/A/A/e/ [ceg]A | x4 | x4 | x4 | %87
x/A/A/e/ [ceg]A | x4 | x4 | x4 |x/A/A/e/ [=dfa]B | x4 | x4 | x4 | [eg]/A/A/e/ [ceg]A | x4 | x4 | %98
 x4 |x/.D/.D/.D/ A>B | (3(A/B/A/).G !^!D2 |x/.D/.D/.D/ A>B | (3(A/B/A/).G !^!D2 |x/.F/.F/.F/ c>d | %104
 (3(c/d/c/)(3(d/c/B/) (3(A/B/A/)(3(B/A/=G/) | x [A,DF]/C/ x [=G,=B,=E]/C/ | x [A,C=E]/F/ x2 | %107
x/.D/.D/.D/ A>B | (3(A/B/A/).G !^!D2 |x/.D/.D/.D/ A>B | (3(A/B/A/).G !^!D2 |x/.F/.F/.F/ c>d | %112
 (3(c/d/c/)(3(d/c/B/) (3(A/B/A/)(3(B/A/=G/) | x [A,DF]/C/ x [=G,=B,=E]/C/ | x [A,C=E]/F/ x2 |] %115
[K:F#] B/A/ x B/G/ z | A/G/ x A/F/ z | E/D/ x E/C/ z | %118
 [CF]/A,/ x [^B,D]/z/[I:staff +1]G,/[I:staff -1] z/ | B/A/ x B/A/ z | A/G/ x A/F/ z | %121
 E/D/ x E/C/ z | x4 | B/A/ x B/G/ z | A/G/ x A/F/ z | E/D/ x E/C/ z | %126
 [CF]/A,/ x [^B,D]/z/[I:staff +1]G,/[I:staff -1] z/ | B/A/ x B/A/ z | A/G/ x A/F/ z | %129
 E/D/ x E/C/ z | x4 | x4 | x4 | x4 | x4 |][K:Db]x/A/A/e/ [ceg]A | x4 | x4 | x4 |x/A/A/e/ [ceg]A | %140
 x4 | x4 | x4 | x4 | x4 | x4 | x4 | x4 | x4 | x4 | x4 | x4 | x4 | x4 | x4 | x4 | x4 | %157
 x2 B[F,B,DF] | x4 | x4 | x4 | x4 | x4 | x4 | x4 | x2 B[I:staff +1][F,B,DF] | x4 | x4 | x4 | x4 | %170
 x4 | x4 | x4 | x4 | x4 | x4 | x4 | x4 | x4 | x4 | x4 | x4 | x4 | x4 | x4 | %185
 x/!8va(! x3/2!8va)! x2 | x/!8va(! x3/2!8va)! x2 | x/!8va(! x3/2!8va)! x2 | %188
 x/!8va(! x3/2!8va)! x2 | x/!8va(! x3/2!8va)! x2 | x/!8va(! x3/2!8va)! x2 | %191
 x/!8va(! x3/2!8va)! x2 | x/!8va(! x3/2!8va)! x2 | x/!8va(! x3/2!8va)! x2 | %194
 x/!8va(! x3/2!8va)! x2 | x/!8va(! x3/2!8va)! x2 | x/!8va(! x3/2!8va)! x2 | %197
 x/!8va(! x3/2!8va)! x2 | x/!8va(! x3/2!8va)! x2 | x/!8va(! x3/2!8va)! x2 | %200
 x/!8va(! x3/2!8va)! x2 | x/!8va(! x3/2!8va)! x2 | x/!8va(! x3/2!8va)! x2 | %203
 x/!8va(! x3/2!8va)! x2 | x/!8va(! x3/2!8va)! x2 | x/!8va(! x3/2!8va)! x2 | %206
 x/!8va(! x3/2!8va)! x2 | x/!8va(! x3/2!8va)! x2 | x/!8va(! x3/2!8va)! x2 | %209
 x/!8va(! x3/2!8va)! x2 | x/!8va(! x3/2!8va)! x2 | x/!8va(! x3/2!8va)! x2 | x4 | x4 | x4 | x4 | %216
 x4 | x4 | x4 | x2[I:staff -1] B[I:staff +1][F,B,DF] | x2[I:staff -1] B[I:staff +1][F,B,DF] | %221
 x/!8va(! x3/2!8va)! x2 | x/!8va(! x3/2!8va)! x2 |[I:staff -1]x/A/A/e/ [ceg]A | x4 | x4 | x4 | %227
x/A/A/e/ [ceg]A | x4 | x4 | x4 | x4 |!8va(! z b'2 a'- | a'!trill)!c'' b' x!8va)! | x4 | x4 | %236
!8va(! z b'2 a'- | a'!trill)!c'' b' x!8va)! | x4 | x4 | x!8va(! x3 | x4 | x4 | x4 | x4 | x4 | %246
 x7/2!8va)! x/ | x4 | x4 | x4 | x4 | B/d/f/b'/ [d'f']/b/f/d/ |x/B/e/g/ g/g/e/ z/ | %253
 =A/c/e/b'/ [c'e']/a/e/c/ |x/B/d/f/ f/f/d/ z/ | B/d/f/b'/ [d'f']/b/f/d/ |x/B/e/g/ g/g/e/ z/ | %257
 =A/B/=B/c/ df/c/ | B/d/f/f'/ [bd']/f/d/c/ | B/d/f/b'/ [d'f']/b/f/d/ |x/B/e/g/ g/g/e/ z/ | %261
 =A/c/e/b'/ [c'e']/a/e/c/ |x/B/d/f/ f/f/d/ z/ | B/d/f/b'/ [d'f']/b/f/d/ |x/B/e/g/ g/g/e/ z/ | %265
 =A/B/=B/c/ df/c/ | (B/d/=e/=g'/ [d'e']/g/[de]/G/) | (A/c/e/a'/ [c'e']/a/[eg]/c/) | x4 | %269
 (A/c/e/a'/ [c'e']/a/[eg]/c/) | x4 | (F/=A/c/e'/ [fac']/f/[ce]/A/) | x4 | %273
 ([FA]/d/f/a'/ [ac'e']/a/[eg]/c/) | x4 | (A/c/e/a'/ [c'e']/a/[eg]/c/) | x4 | %277
 (A/c/e/a'/ [c'e']/a/[eg]/c/) | x4 | (F/=A/c/e'/ [fac']/f/[ce]/A/) | x4 | %281
 ([FA]/d/f/a'/ [ad'f']/a/[eg]/c/) | x4 | x4 | x3!8va(! x | x2!8va)! x2 | B/d/f/b'/ [d'f']/b/f/d/ | %287
x/B/e/g/ g/g/e/ z/ | (A/c/e/g'/ [ac']/f/e/c/) |x/B/d/f/ f/f/d/ z/ | B/d/f/b'/ [d'f']/b/f/d/ | %291
x/B/e/g/ g/g/e/ z/ | =A/B/=B/c/ df/c/ | B/d/=e/=g'/ [d'e']/=g/d/G/ | %294
 (A/c/e/a'/ [ac'e']/a/[eg]/c/) | x4 | (A/c/e/a'/ [c'e']/a/[eg]/c/) | x4 | %298
 (F/=A/c/e'/ [fac']/f/[ce]/A/) | x4 | (F/d/f/a'/ [ad'f']/a/[eg]/c/) | x4 | x4 | x7/2!8va(! x/ | %304
 x2!8va)! x2 | B/d/f/b'/ [d'f']/b/f/d/ |x/B/e/g/ g/g/e/ z/ | (=A/c/e/g'/ [ac']/f/e/c/) | %308
x/B/d/f/ f/f/d/ z/ | B/d/f/b'/ [d'f']/b/f/d/ |x/B/e/g/ g/g/e/ z/ | =A/B/=B/c/ df/c/ | %312
 B/d/f/f'/ [bd']/f/d/c/ | B/d/f/f'/ [bd']/f/d/c/ | B/d/f/f'/ b/d'/f'/!8va(!f''/ |[K:Db] x4!8va)! |] %316
[K:F#] e4 | [FAf]2x>d | [EBc]2 G2 | !^!A2 !^!G2 | [EBe]4 | [FAf]2x>d | [EBc]2 G>A | F4 | [EBe]4 | %325
 [FAf]2x>d | [EBc]2 G2 | !^!A2 !^!G2 | [EBe]4 | [FAf]2x>d | [EBc]2 G>A | F4 | !^![Ff]2 x2 | %333
 !^![Ff]2 x2 | !^![Ff]2 x2 | x4 |][K:Db] !^![Aa]>[Ee] [Gg][Ff] | [DFAd]>[A,DFA] [A,DFA][A,DFA] | %338
 [A,EGA]>[A,CEA] [A,CEA][A,CEA] | [B,DFB]>[A,DFA] [A,DFA][A,DFA] | !^![Aa]>[Ee] [Gg][Ff] | %341
 [DFAd]>[A,DFA] [A,DFA][A,DFA] | [A,EGA]>[A,CEA] [A,CEA][A,CEA] | x!8va(! x!8va)! x2 | %344
 [Aa]>[Ee] [Gg][Ff] | [DFAd]>[A,DFA] [A,DFA][A,DFA] | [A,EGA]>[A,CEA] [A,CEA][A,CEA] | %347
 [B,DFB]>[A,DFA] [A,DFA][A,DFA] | [Aa]>[Ee] [Gg][Ff] | [DFAd]>[A,DFA] [A,DFA][A,DFA] | %350
 [A,EGA]>[A,CEA] [A,CEA][A,CEA] | x!8va(! x!8va)! x2 | x!8va(! x!8va)! x2 | x!8va(! x!8va)! x2 | %354
 x4 | [Aa]>[Ee] [Gg][Ff] | x4 |] %357
V:8
 x4 | x4 | x4 | x4 |x[I:staff -1]A, x2 | x4 | x4 | x4 |[I:staff +1]x[I:staff -1]A, x2 | x4 | x4 | %11
 x4 | x4 | x4 | x4 | x4 |[I:staff +1]x[I:staff -1]A x2 | x4 | x4 | x4 | %20
[I:staff +1]x[I:staff -1]A x2 | x4 | x4 | x4 |[I:staff +1]x[I:staff -1]A x2 | x4 | x4 | x4 | %28
[I:staff +1]x[I:staff -1]A x2 | x4 | x4 | x4 |[I:staff +1]x[I:staff -1]B x2 | x4 | x4 | x4 | %36
[I:staff +1]x[I:staff -1]A x2 | x4 | x4 | x4 |[I:staff +1]x[I:staff -1]A x2 | x4 | x4 | %43
!8vb(! x!8vb)! x3 |[I:staff +1]x[I:staff -1]A x2 | x4 | x4 | x4 | x4 | x4 | x4 | x4 | x4 | x4 | %54
 x4 | x4 | x4 | x4 | x4 | x4 | x4 | x4 | x4 | x4 |][K:F#] x4 | x4 | x4 | x4 | x4 | x4 | x4 | x4 | %72
 x4 | x4 | x4 | x2[I:staff +1] G,,/A,,/!^!G,, | x4 | x4 | x4 | x4 | x4 | x4 | x4 |] %83
[K:Db]x[I:staff -1]A x2 | x4 | x4 |!8vb(! x!8vb)! x3 |[I:staff +1]x[I:staff -1]A x2 | x4 | x4 | %90
 x4 |[I:staff +1]x[I:staff -1]A x2 | x4 | x4 | x4 |[I:staff +1]x[I:staff -1]A x2 | x4 | x4 | x4 | %99
 x4 | x4 | x4 | x4 | x4 | x4 | x4 | x4 | x4 | x4 | x4 | x4 | x4 | x4 | x4 | x4 |][K:F#] x4 | x4 | %117
 x4 | x4 | x4 | x4 | x4 | x2[I:staff +1] F,,2 | x4 | x4 | x4 | x4 | x4 | x4 | x4 | x4 | x2 F,, x | %132
 x2 F,, x | x4 | x4 |][K:Db]x[I:staff -1]A x2 | x4 | x4 |!8vb(! x!8vb)! x3 | %139
[I:staff +1]x[I:staff -1]A x2 | x4 | x4 | x4 | x4 | x4 | x4 | x4 | x4 | x4 | x4 | %150
 x[I:staff +1][K:treble] x3 |[K:bass] x[K:treble] x3 |[K:bass] x[K:treble] x3 | %153
[K:bass] x[K:treble] x3 |[K:bass] x[K:treble] x3 |[K:bass] x[K:treble] x3 | %156
[K:bass] x[K:treble] x3 |[K:bass] x[K:treble] x3 |[K:bass] x[K:treble] x3 | %159
[K:bass] x[K:treble] x3 |[K:bass] x[K:treble] x3 |[K:bass] x[K:treble] x3 | %162
[K:bass] x[K:treble] x3 |[K:bass] x[K:treble] x3 |[K:bass] x[K:treble] x3 | %165
[K:bass] x[K:treble] x3 |[K:bass] x[K:treble] x3 |[K:bass] x[K:treble] x3 | %168
[K:bass] x[K:treble] x3 |[K:bass] x[K:treble] x3 |[K:bass] x[K:treble] x3 | %171
[K:bass] x[K:treble] x2[K:bass] x | x[K:treble] x3 |[K:bass] x[K:treble] x3 | %174
[K:bass] x[K:treble] x3 |[K:bass] x[K:treble] x3 |[K:bass] x[K:treble] x3 | %177
[K:bass] x[K:treble] x3 |[K:bass] x[K:treble] x3 |[K:bass] x[K:treble] x2[K:bass] x | %180
 x[K:treble] x3 |[K:bass] x[K:treble] x3 | x4 | x4 | x4 |[K:bass] x4 | x4 | x4 | x4 | x4 | x4 | %191
 x4 | x4 | x4 | x4 | x4 | x4 | x4 | x4 | x4 | x[K:treble] x3 |[K:bass] x4 | x4 | x4 | x4 | x4 | %206
 x4 | x[K:treble] x3 |[K:bass] x[K:treble] x3 |[K:bass] x[K:treble] x3 |[K:bass] x[K:treble] x3 | %211
[K:bass] x[K:treble] x3 |[K:bass] x[K:treble] x3 |[K:bass] x[K:treble] x3 | %214
[K:bass] x[K:treble] x3 |[K:bass] x[K:treble] x3 |[K:bass] x[K:treble] x3 | %217
[K:bass] x[K:treble] x3 |[K:bass] x[K:treble] x3 |[K:bass] x[K:treble] x3 | %220
[K:bass] x[K:treble] x3 |[K:bass] x4 | x4 |x[I:staff -1]A x2 | x4 | x4 |!8vb(! x!8vb)! x3 | %227
[I:staff +1]x[I:staff -1]A x2 | x4 | x4 | x4 | x4 | x4 | x4 | x4 | x4 | x4 | x4 | x4 | x4 | x4 | %241
 x4 | x4 | x4 | x4 | x4 | x4 | x4 | x4 | x4 | x4 | x4 | x4 | x4 | x4 | x4 | x4 | x4 | x4 | x4 | %260
 x4 | x4 | x4 | x4 | x[I:staff +1][K:treble] x3 |[K:bass] x4 | x4 | x4 | x2[K:treble] x2 | %269
[K:bass] x4 | x2[K:treble] x2 |[K:bass] x4 | x2[K:treble] x2 |[K:bass] x4 | x2[K:treble] x2 | %275
[K:bass] x4 | x2[K:treble] x2 |[K:bass] x4 | x2[K:treble] x2 |[K:bass] x4 | x2[K:treble] x2 | %281
[K:bass] x4 | x2[K:treble] x2 |[K:bass] x2[K:treble] x2 |[K:bass] x2[K:treble] x2 |[K:bass] x4 | %286
 x[K:treble] x3 |[K:bass] x[K:treble] x3 |[K:bass] x[K:treble] x3 |[K:bass] x[K:treble] x3 | %290
[K:bass] x[K:treble] x3 |[K:bass] x[K:treble] x3 |[K:bass] x4 | x4 | x4 | x2[K:treble] x2 | %296
[K:bass] x4 | x2[K:treble] x2 |[K:bass] x4 | x2[K:treble] x2 |[K:bass] x4 | x2[K:treble] x2 | %302
[K:bass] x2[K:treble] x2 |[K:bass] x2[K:treble] x2 |[K:bass] x4 | x[K:treble] x3 | %306
[K:bass] x[K:treble] x3 |[K:bass] x[K:treble] x3 |[K:bass] x[K:treble] x3 | %309
[K:bass] x[K:treble] x3 |[K:bass] x[K:treble] x3 |[K:bass] x4 | x4 | x4 | x4 |[K:Db] x4 |] %316
[K:F#] x4 | x4 | x4 | x4 | x4 | x4 | x4 | x4 | x4 | x4 | x4 | x4 | x4 | x4 | x4 | x4 | x4 | %333
 F,,2 x2 | F,,2 x2 | x4 |][K:Db] x4 | x4 | x4 | x4 | x4 | x4 | x4 | x[K:treble] x3 |[K:bass] x4 | %345
 x4 | x4 | x4 | x4 | x4 | x4 | x[K:treble] x3 |[K:bass] x[K:treble] x3 |[K:bass] x[K:treble] x3 | %354
[K:bass] x4 | x4 | x4 |] %357
V:9
 x4 | x4 | x4 | x4 | x4 | x4 | x4 | x4 | x4 | x4 | x4 | x4 | x4 | x4 | x4 | x4 | x4 | x4 | x4 | %19
 x4 | x4 | x4 | x4 | x4 | x4 | x4 | x4 | x4 | x4 | x4 | x4 | x4 | x4 | x4 | x4 | x4 | x4 | x4 | %38
 x4 | x4 | x4 | x4 | x4 | x4 | x4 | x4 | x4 | x4 | x4 | x4 | x4 | x4 | x4 | x4 | x4 | x4 | x4 | %57
 x4 | x4 | x4 | x4 | x4 | x4 | x4 |][K:F#] x4 | x4 | x4 | x4 | x4 | x4 | x4 | x4 | x4 | x4 | x4 | %75
 x4 | x4 | x4 | x4 | x4 | x4 | x4 | x4 |][K:Db] x4 | x4 | x4 | x4 | x4 | x4 | x4 | x4 | x4 | x4 | %93
 x4 | x4 | x4 | x4 | x4 | x4 | x4 | x4 | x4 | x4 | x4 | x4 | x4 | x4 | x4 | x4 | x4 | x4 | x4 | %112
 x4 | x4 | x4 |][K:F#] x4 | x4 | x4 | x4 | x4 | x4 | x4 | x4 | x4 | x4 | x4 | x4 | x4 | x4 | x4 | %130
 x4 | x4 | x4 | x4 | x4 |][K:Db] x4 | x4 | x4 | x4 | x4 | x4 | x4 | x4 | x4 | x4 | x4 | x4 | x4 | %148
 x4 | x4 | x4 | x4 | x4 | x4 | x4 | x4 | x4 | x4 | x4 | x4 | x4 | x4 | x4 | x4 | x4 | x4 | x4 | %167
 x4 | x4 | x4 | x4 | x4 | x4 | x4 | x4 | x4 | x4 | x4 | x4 | x4 | x4 | x4 | x4 | x4 | x4 | %185
 x/!8va(! x3/2!8va)! x2 | x/!8va(! x3/2!8va)! x2 | x/!8va(! x3/2!8va)! x2 | %188
 x/!8va(! x3/2!8va)! x2 | x/!8va(! x3/2!8va)! x2 | x/!8va(! x3/2!8va)! x2 | %191
 x/!8va(! x3/2!8va)! x2 | x/!8va(! x3/2!8va)! x2 | x/!8va(! x3/2!8va)! x2 | %194
 x/!8va(! x3/2!8va)! x2 | x/!8va(! x3/2!8va)! x2 | x/!8va(! x3/2!8va)! x2 | %197
 x/!8va(! x3/2!8va)! x2 | x/!8va(! x3/2!8va)! x2 | x/!8va(! x3/2!8va)! x2 | %200
 x/!8va(! x3/2!8va)! x2 | x/!8va(! x3/2!8va)! x2 | x/!8va(! x3/2!8va)! x2 | %203
 x/!8va(! x3/2!8va)! x2 | x/!8va(! x3/2!8va)! x2 | x/!8va(! x3/2!8va)! x2 | %206
 x/!8va(! x3/2!8va)! x2 | x/!8va(! x3/2!8va)! x2 | x/!8va(! x3/2!8va)! x2 | %209
 x/!8va(! x3/2!8va)! x2 | x/!8va(! x3/2!8va)! x2 | x/!8va(! x3/2!8va)! x2 | x4 | x4 | x4 | x4 | %216
 x4 | x4 | x4 | x4 | x4 | x/!8va(! x3/2!8va)! x2 | x/!8va(! x3/2!8va)! x2 | x4 | x4 | x4 | x4 | %227
 x4 | x4 | x4 | x4 | x4 |!8va(! x4 | x4!8va)! | x4 | x4 |!8va(! x4 | x4!8va)! | x4 | x4 | %240
 x!8va(! x3 | x4 | x4 | x4 | x4 | x4 | x7/2!8va)! x/ | x4 | x4 | x4 | x4 | x4 | x4 | x4 | x4 | x4 | %256
 x4 | x4 | x4 | x4 | x4 | x4 | x4 | x4 | x4 | x4 | x4 | x3 B | x4 | x3 B | x4 | x3 x | x4 | x3 B | %274
 x4 | x3 B | x4 | x3 B | x4 | x3 x | x4 | x3 B | x4 | x4 | x3!8va(! x | x2!8va)! x2 | x4 | x4 | %288
 x4 | x4 | x4 | x4 | x4 | x4 | x3 B | x4 | x3 B | x4 | x3 x | x4 | x3 B | x4 | x4 | x7/2!8va(! x/ | %304
 x2!8va)! x2 | x4 | x4 | x4 | x4 | x4 | x4 | x4 | x4 | x4 | x7/2!8va(! x/ |[K:Db] x4!8va)! |] %316
[K:F#] x2 c/ x/!8va(! x/!8va)! x/ | x2 c/ x/!8va(! x/!8va)! x/ | x3!8va(! x/!8va)! x/ | x4 | %320
 x2 c/ x/!8va(! x/!8va)! x/ | x2 c/ x/!8va(! x/!8va)! x/ | x2 x2 | x4 | %324
 x2 c/ x/!8va(! x/!8va)! x/ | x2 c/ x/!8va(! x/!8va)! x/ | x3!8va(! x/!8va)! x/ | x4 | %328
 x2 c/ x/!8va(! x/!8va)! x/ | x2 c/ x/!8va(! x/!8va)! x/ | x2 x2 | x4 | x4 | x4 | x4 | x4 |] %336
[K:Db] x4 | x4 | x4 | x4 | x4 | x4 | x4 | x!8va(! x!8va)! x2 | x4 | x4 | x4 | x4 | x4 | x4 | x4 | %351
 x!8va(! x!8va)! x2 | x!8va(! x!8va)! x2 | x!8va(! x!8va)! x2 | x4 | x4 | x4 |] %357

